dist/svg/u1F3F9.svg

<?xml version="1.0" encoding="UTF-8"?><svg id="a" xmlns="http://www.w3.org/2000/svg" viewBox="0 0 40 40"><rect x="0" width="40" height="40" fill="none" opacity="0"/><g><line x1="34.867" y1="5.04" x2="7.239" y2="32.667" fill="none" stroke="#6e4944" stroke-linecap="round" stroke-miterlimit="10" stroke-width="2"/><path d="M6.944,3.752l.075,27.741c-.015,.745,.596,1.352,1.341,1.331l27.761,.027" fill="none" stroke="#65778e" stroke-miterlimit="10"/><path d="M37.523,1.925l-5.255,1.724c-.237,.078-.4,.294-.409,.543l-.109,2.927c-.022,.581,.455,1.058,1.036,1.036l2.927-.109c.249-.009,.466-.173,.543-.409l1.724-5.255c.093-.283-.175-.551-.458-.458Z" fill="#8a94a0"/><path d="M35.121,32.564c.291,1.122,1.932,.956,1.974-.202,.281-7.711-2.518-15.512-8.404-21.398S15.004,2.278,7.293,2.56c-1.158,.042-1.324,1.683-.202,1.974,6.093,1.578,12.319,5.099,17.625,10.405,5.307,5.307,8.828,11.532,10.405,17.626Z" fill="#a96850"/><path d="M13.996,27.284l.15,1.483c.225,2.229-.52,4.446-2.045,6.087l-2.865,3.083c-.277,.299-.777,.145-.838-.258l-.636-4.168,6.235-6.228Z" fill="#fa0"/><path d="M12.607,25.877l-1.483-.15c-2.229-.225-4.446,.52-6.087,2.045l-3.083,2.865c-.299,.277-.145,.777,.258,.838l4.168,.636,6.228-6.235Z" fill="#ffcd00"/></g></svg>

<svg id="Layer_1" data-name="Layer 1" xmlns="http://www.w3.org/2000/svg" viewBox="0 0 40 40"><defs><style>.cls-1,.cls-2,.cls-3{fill:none;}.cls-1{opacity:0;}.cls-2{stroke:#6e4944;stroke-linecap:round;stroke-width:2px;}.cls-2,.cls-3{stroke-miterlimit:10;}.cls-3{stroke:#65778e;}.cls-4{fill:#8a94a0;}.cls-5{fill:#a96850;}.cls-6{fill:#fa0;}.cls-7{fill:#ffcd00;}</style></defs><rect class="cls-1" width="40" height="40"/><line class="cls-2" x1="34.867" y1="5.04" x2="7.239" y2="32.667"/><path class="cls-3" d="M6.944,3.752l.075,27.741A1.305,1.305,0,0,0,8.36,32.824l27.761.027"/><path class="cls-4" d="M37.523,1.925,32.268,3.649a.6.6,0,0,0-.409.544L31.75,7.12a1,1,0,0,0,1.036,1.036l2.928-.109a.6.6,0,0,0,.543-.409l1.724-5.255A.363.363,0,0,0,37.523,1.925Z"/><path class="cls-5" d="M35.121,32.564a1,1,0,0,0,1.974-.2,28.76,28.76,0,0,0-29.8-29.8,1,1,0,0,0-.2,1.974A39.265,39.265,0,0,1,24.716,14.939,39.265,39.265,0,0,1,35.121,32.564Z"/><path class="cls-6" d="M14,27.284l.15,1.483A7.79,7.79,0,0,1,12.1,34.854L9.236,37.938A.488.488,0,0,1,8.4,37.68l-.636-4.168Z"/><path class="cls-7" d="M12.607,25.877l-1.483-.149a7.793,7.793,0,0,0-6.088,2.045L1.953,30.638a.488.488,0,0,0,.258.839l4.168.636Z"/></svg>
